X: 8662
T: Crosses Of Annagh, The
R: reel
M: 4/4
K: Adorian
EAAG A2Bd|eggd edBA|~G3B AEGE|DGBG AGED|
EAAG A2Bd|~g3d edBA|GABd gedB|1 GAAG ~A3G:|2 GAAG A2Bd||
|:eg~g2 a2ga|bgaf gedB|d^cde ~g3a|bgaf gefd|
eg~g2 a2ga|bgaf gedB|GABd gedB|1 GAAG A2Bd:|2 GAAG ~A3G||

